icon/button-down-active.svg

<?xml version="1.0" encoding="utf-8"?>
<!-- Generator: Adobe Illustrator 26.3.1, SVG Export Plug-In . SVG Version: 6.00 Build 0)  -->
<svg version="1.1" id="图层_1" xmlns="http://www.w3.org/2000/svg" xmlns:xlink="http://www.w3.org/1999/xlink" x="0px" y="0px"
	 viewBox="0 0 16 17" style="enable-background:new 0 0 16 17;" xml:space="preserve">
<style type="text/css">
	.st0{fill-rule:evenodd;clip-rule:evenodd;fill:#FFDBD9;}
	.st1{fill:#FFF0EF;}
	.st2{fill-rule:evenodd;clip-rule:evenodd;fill:#D9908E;}
</style>
<path class="st0" d="M0,0h15h1v17h-1H0v-1V1V0z M1,16h14V1H1V16z"/>
<rect x="1" y="1" class="st1" width="14" height="15"/>
<path class="st2" d="M12,7H5v1h1v1h1v1h1v1h1v-1h1V9h1V8h1V7z"/>
</svg>

<svg width="16" height="17" viewBox="0 0 16 17" fill="none" xmlns="http://www.w3.org/2000/svg">
<path fill-rule="evenodd" clip-rule="evenodd" d="M0 0H15H16V17H15H0V16V1V0ZM1 16H15V1H1V16Z" fill="#808080"/>
<rect x="1" y="1" width="14" height="15" fill="#C0C0C0"/>
<path fill-rule="evenodd" clip-rule="evenodd" d="M12 7H5V8H6V9H7V10H8V11H9V10H10V9H11V8H12V7Z" fill="black"/>
</svg>
